view/adminhtml/web/images/postcode_service_logo_color.svg

<svg height="220" viewBox="0 0 657.384 220" width="657.384" xmlns="http://www.w3.org/2000/svg"><path d="m482.092 0h4.889v220h-4.889z" fill="#333"/><path d="m595.685 24.444a61.7 61.7 0 0 0 -61.7 61.7c0 1.6.058 3.184.181 4.747.082 1.045.181 2.081.313 3.109q.3 2.321.757 4.583c.065.312.139.625.205.937 2.057 8.6 8.441 19.275 16.322 29.945 18.032 24.391 43.921 66.092 43.921 66.092s16.435-26.684 32.268-49.833a11.573 11.573 0 0 0 -1.374-14.717l-6.283-6.284a11.67 11.67 0 0 0 -12.062-2.865 37.81 37.81 0 1 1 23.167-23.166 11.672 11.672 0 0 0 2.866 12.062 11.6 11.6 0 0 0 18.774-3.486 45.985 45.985 0 0 0 3.293-9.748c.148-.74.271-1.489.378-2.237.066-.428.123-.856.181-1.284.066-.51.123-1.028.173-1.546s.1-1.028.14-1.547v-.041q.062-.765.1-1.53v-.025c.017-.32.033-.633.042-.954.016-.288.016-.568.024-.847.008-.453.017-.913.017-1.366a61.7 61.7 0 0 0 -61.703-61.699z" fill="#227cff"/><circle cx="595.685" cy="86.143" fill="#227cff" opacity=".7" r="18.098"/><path d="m4.907 45.639h17.066c9.879 0 17.953 7.567 17.953 16.844 0 9.087-8.074 16.5-17.953 16.5h-9.055v17.7h-8.011zm27.008 16.781c0-4.876-4.464-8.834-9.942-8.834h-9.055v17.445l9.055.033c5.478.036 9.942-3.864 9.942-8.644z"/><path d="m53.581 71.222a26.39 26.39 0 1 1 26.343 26.278 26.478 26.478 0 0 1 -26.343-26.278zm44.675-.064a18.3 18.3 0 1 0 -18.332 18.242 18.384 18.384 0 0 0 18.332-18.242z"/><path d="m120.492 87.718 6.333-4.528a12.784 12.784 0 0 0 11.43 6.269c5.73 0 10.068-2.755 10.068-6.649 0-4.718-6.712-7.568-12.665-10.132-5.984-2.659-12.633-5.763-12.633-13.773 0-8.359 7.251-14.184 16.433-14.184 7.282 0 12.728 3.515 14.817 9.118l-5.952 4.116a9.518 9.518 0 0 0 -8.8-5.383c-4.686 0-8.422 2.914-8.422 6.523 0 3.989 4.717 5.414 10.923 8.074 8.074 3.546 14.343 7.441 14.343 15.483 0 9.055-7.852 14.88-18.205 14.88-8.392 0-14.757-3.925-17.67-9.814z"/><path d="m204.944 53.586h-13.678v43.092h-8.042v-43.092h-13.678v-7.947h35.4z"/><path d="m216.066 71.19a26.672 26.672 0 0 1 26.343-26.438 25.808 25.808 0 0 1 17.731 7.789l-4.655 6.3a18.964 18.964 0 0 0 -13.235-5.951 18.629 18.629 0 0 0 -18.079 18.332c0 10.29 8.961 18.237 18.111 18.237 5.224 0 9.72-2.6 13.235-6.079l4.623 6.459c-4.4 4.338-10.006 7.662-17.6 7.662a26.567 26.567 0 0 1 -26.474-26.311z"/><path d="m271.61 71.222a26.391 26.391 0 1 1 26.343 26.278 26.479 26.479 0 0 1 -26.343-26.278zm44.675-.064a18.3 18.3 0 1 0 -18.332 18.242 18.384 18.384 0 0 0 18.332-18.242z"/><path d="m382.31 71.222c0 15.673-10.1 25.456-26.311 25.456h-14.533v-51.039h14.534c16.21-.031 26.31 9.783 26.31 25.583zm-8.105-.032c0-10.829-7.029-17.6-18.238-17.6h-6.522v35.11h6.617c11.146 0 18.143-6.745 18.143-17.51z"/><path d="m407.4 53.523v13.077h19.313v7.979h-19.313v14.121h22.385v7.979h-30.4v-51.04h30.4v7.884z"/><path d="m105.192 165.534 6.333-4.528a12.786 12.786 0 0 0 11.43 6.27c5.731 0 10.068-2.755 10.068-6.65 0-4.718-6.712-7.567-12.665-10.132-5.983-2.659-12.632-5.762-12.632-13.772 0-8.36 7.25-14.185 16.432-14.185 7.282 0 12.728 3.515 14.818 9.118l-5.953 4.117a9.516 9.516 0 0 0 -8.8-5.383c-4.687 0-8.423 2.913-8.423 6.522 0 3.99 4.718 5.414 10.924 8.075 8.073 3.545 14.342 7.44 14.342 15.482 0 9.056-7.852 14.881-18.2 14.881-8.396 0-14.761-3.926-17.674-9.815z"/><path d="m165.676 131.339v13.076h19.314v7.98h-19.314v14.121h22.385v7.978h-30.4v-51.039h30.4v7.884z"/><path d="m234.169 174.494-13.741-19.757h-6.269v19.757h-8.011l-.031-51.039h15.862c9.5 0 17.288 7.314 17.288 16.4a14.936 14.936 0 0 1 -10.1 14.216l14.849 20.422zm-12-26.406a8.717 8.717 0 0 0 8.831-8.422c0-4.749-4.084-8.263-8.834-8.263h-8.042v16.685z"/><path d="m298.705 123.455-23.556 52.084h-.539l-23.461-52.084h8.517l15.198 34.545 15.261-34.543z"/><path d="m314.1 123.455h8.01v51.039h-8.01z"/><path d="m339.218 149.006a26.672 26.672 0 0 1 26.343-26.437 25.8 25.8 0 0 1 17.731 7.789l-4.654 6.3a18.967 18.967 0 0 0 -13.236-5.952 18.629 18.629 0 0 0 -18.078 18.332c0 10.29 8.96 18.238 18.111 18.238 5.223 0 9.719-2.6 13.234-6.08l4.623 6.459c-4.4 4.338-10.006 7.663-17.6 7.663a26.569 26.569 0 0 1 -26.474-26.312z"/><path d="m407.4 131.339v13.076h19.313v7.98h-19.313v14.121h22.385v7.978h-30.4v-51.039h30.4v7.884z"/></svg>

<svg xmlns="http://www.w3.org/2000/svg" width="657.384" height="220" viewBox="0 0 657.384 220">
  <g>
    <g>
      <rect x="482.092" width="4.889" height="220" fill="#333"/>
      <g>
        <path d="M595.685,24.444a61.7,61.7,0,0,0-61.7,61.7c0,1.6.058,3.184.181,4.747.082,1.045.181,2.081.313,3.109q.3,2.321.757,4.583c.065.312.139.625.205.937,2.057,8.6,8.441,19.275,16.322,29.945,18.032,24.391,43.921,66.092,43.921,66.092s16.435-26.684,32.268-49.833a11.573,11.573,0,0,0-1.374-14.717l-6.283-6.284a11.67,11.67,0,0,0-12.062-2.865A37.81,37.81,0,1,1,631.4,98.692a11.672,11.672,0,0,0,2.866,12.062h0a11.6,11.6,0,0,0,18.774-3.486,45.985,45.985,0,0,0,3.293-9.748c.148-.74.271-1.489.378-2.237.066-.428.123-.856.181-1.284.066-.51.123-1.028.173-1.546s.1-1.028.14-1.547v-.041q.062-.765.1-1.53V89.31c.017-.32.033-.633.042-.954.016-.288.016-.568.024-.847.008-.453.017-.913.017-1.366A61.7,61.7,0,0,0,595.685,24.444Z" fill="#227cff"/>
        <g opacity="0.7">
          <circle cx="595.685" cy="86.143" r="18.098" fill="#227cff"/>
        </g>
      </g>
    </g>
    <g>
      <path d="M4.907,45.639H21.973c9.879,0,17.953,7.567,17.953,16.844,0,9.087-8.074,16.5-17.953,16.5H12.918v17.7H4.907ZM31.915,62.42c0-4.876-4.464-8.834-9.942-8.834H12.918V71.031l9.055.033C27.451,71.1,31.915,67.2,31.915,62.42Z"/>
      <path d="M53.581,71.222A26.39,26.39,0,1,1,79.924,97.5,26.478,26.478,0,0,1,53.581,71.222Zm44.675-.064A18.3,18.3,0,1,0,79.924,89.4,18.384,18.384,0,0,0,98.256,71.158Z"/>
      <path d="M120.492,87.718l6.333-4.528a12.784,12.784,0,0,0,11.43,6.269c5.73,0,10.068-2.755,10.068-6.649,0-4.718-6.712-7.568-12.665-10.132-5.984-2.659-12.633-5.763-12.633-13.773,0-8.359,7.251-14.184,16.433-14.184,7.282,0,12.728,3.515,14.817,9.118l-5.952,4.116a9.518,9.518,0,0,0-8.8-5.383c-4.686,0-8.422,2.914-8.422,6.523,0,3.989,4.717,5.414,10.923,8.074,8.074,3.546,14.343,7.441,14.343,15.483,0,9.055-7.852,14.88-18.205,14.88C129.77,97.532,123.405,93.607,120.492,87.718Z"/>
      <path d="M204.944,53.586H191.266V96.678h-8.042V53.586H169.546V45.639h35.4Z"/>
      <path d="M216.066,71.19a26.672,26.672,0,0,1,26.343-26.438,25.808,25.808,0,0,1,17.731,7.789l-4.655,6.3A18.964,18.964,0,0,0,242.25,52.89a18.629,18.629,0,0,0-18.079,18.332c0,10.29,8.961,18.237,18.111,18.237,5.224,0,9.72-2.6,13.235-6.079l4.623,6.459c-4.4,4.338-10.006,7.662-17.6,7.662A26.567,26.567,0,0,1,216.066,71.19Z"/>
      <path d="M271.61,71.222A26.391,26.391,0,1,1,297.953,97.5,26.479,26.479,0,0,1,271.61,71.222Zm44.675-.064A18.3,18.3,0,1,0,297.953,89.4,18.384,18.384,0,0,0,316.285,71.158Z"/>
      <path d="M382.31,71.222c0,15.673-10.1,25.456-26.311,25.456H341.466V45.639H356C372.21,45.608,382.31,55.422,382.31,71.222Zm-8.105-.032c0-10.829-7.029-17.6-18.238-17.6h-6.522V88.7h6.617C367.208,88.7,374.205,81.955,374.205,71.19Z"/>
      <path d="M407.4,53.523V66.6h19.313v7.979H407.4V88.7h22.385v7.979h-30.4V45.639h30.4v7.884Z"/>
      <path d="M105.192,165.534l6.333-4.528a12.786,12.786,0,0,0,11.43,6.27c5.731,0,10.068-2.755,10.068-6.65,0-4.718-6.712-7.567-12.665-10.132-5.983-2.659-12.632-5.762-12.632-13.772,0-8.36,7.25-14.185,16.432-14.185,7.282,0,12.728,3.515,14.818,9.118l-5.953,4.117a9.516,9.516,0,0,0-8.8-5.383c-4.687,0-8.423,2.913-8.423,6.522,0,3.99,4.718,5.414,10.924,8.075,8.073,3.545,14.342,7.44,14.342,15.482,0,9.056-7.852,14.881-18.2,14.881C114.47,175.349,108.105,171.423,105.192,165.534Z"/>
      <path d="M165.676,131.339v13.076H184.99v7.98H165.676v14.121h22.385v7.978h-30.4V123.455h30.4v7.884Z"/>
      <path d="M234.169,174.494l-13.741-19.757h-6.269v19.757h-8.011l-.031-51.039h15.862c9.5,0,17.288,7.314,17.288,16.4a14.936,14.936,0,0,1-10.1,14.216l14.849,20.422Zm-12-26.406A8.717,8.717,0,0,0,231,139.666c0-4.749-4.084-8.263-8.834-8.263h-8.042v16.685Z"/>
      <path d="M298.705,123.455l-23.556,52.084h-.539l-23.461-52.084h8.517L274.864,158l15.261-34.543Z"/>
      <path d="M314.1,123.455h8.01v51.039H314.1Z"/>
      <path d="M339.218,149.006a26.672,26.672,0,0,1,26.343-26.437,25.8,25.8,0,0,1,17.731,7.789l-4.654,6.3a18.967,18.967,0,0,0-13.236-5.952,18.629,18.629,0,0,0-18.078,18.332c0,10.29,8.96,18.238,18.111,18.238,5.223,0,9.719-2.6,13.234-6.08l4.623,6.459c-4.4,4.338-10.006,7.663-17.6,7.663A26.569,26.569,0,0,1,339.218,149.006Z"/>
      <path d="M407.4,131.339v13.076h19.313v7.98H407.4v14.121h22.385v7.978h-30.4V123.455h30.4v7.884Z"/>
    </g>
  </g>
</svg>
